src/icons/megaphone.svg

<svg width="16" height="16" viewBox="0 0 16 16" fill="none" xmlns="http://www.w3.org/2000/svg">
<path fill-rule="evenodd" clip-rule="evenodd" d="M2 6.77002L14.33 3.33997L15 3.86997V12.47L14.33 13L8.24174 11.4051C8.1952 11.5852 8.12545 11.7591 8.03381 11.9223C7.87307 12.2085 7.64919 12.4543 7.37919 12.6411C7.10919 12.8279 6.80018 12.9506 6.47562 13C6.15107 13.0495 5.81952 13.0242 5.50617 12.9263C5.19282 12.8284 4.90592 12.6603 4.66726 12.4349C4.42859 12.2095 4.24446 11.9326 4.12884 11.6254C4.01322 11.3181 3.96916 10.9885 4 10.6617C4.01123 10.5427 4.03229 10.4252 4.06277 10.3104L2 9.77002L1.58 9.24002V7.30002L2 6.77002ZM5.00615 10.5575C4.98449 10.6358 4.9712 10.7168 4.96686 10.7991C4.96686 11.1094 5.09013 11.407 5.30954 11.6265C5.52896 11.8459 5.82655 11.9691 6.13686 11.9691C6.44716 11.9691 6.74476 11.8459 6.96417 11.6265C7.09956 11.4911 7.19833 11.3259 7.25414 11.1464L5.00615 10.5575ZM2.58 8.82002L14 11.83V4.49997L2.58 7.72002V8.82002Z" fill="white"/>
</svg>

<svg width="16" height="16" xmlns="http://www.w3.org/2000/svg"><path fill-rule="evenodd" clip-rule="evenodd" d="M2 6.77l12.33-3.43.67.53v8.6l-.67.53-6.088-1.595a2.16 2.16 0 1 1-4.18-1.095L2 9.77l-.42-.53V7.3L2 6.77zm3.006 3.787a1.13 1.13 0 0 0-.04.242 1.17 1.17 0 0 0 2.288.347l-2.248-.589zM2.58 8.82L14 11.83V4.5L2.58 7.72v1.1z"/></svg>
